lib/flags/s/TK.svg

<svg xmlns="http://www.w3.org/2000/svg" fill="none" viewBox="0 0 16 12"><mask id="TK_svg__a" width="16" height="12" x="0" y="0" mask-type="alpha" maskUnits="userSpaceOnUse"><path fill="#fff" d="M0 0H16V12H0z"/></mask><g mask="url(#TK_svg__a)"><path fill="#2E42A5" fill-rule="evenodd" d="M0 0V12H16V0H0Z" clip-rule="evenodd"/><mask id="TK_svg__b" width="16" height="12" x="0" y="0" mask-type="alpha" maskUnits="userSpaceOnUse"><path fill="#fff" fill-rule="evenodd" d="M0 0V12H16V0H0Z" clip-rule="evenodd"/></mask><g fill-rule="evenodd" clip-rule="evenodd" mask="url(#TK_svg__b)"><path fill="#F7FCFF" d="M1.64724 5.03169 1.20446 5.30568 1.37636 4.84573 1 4.49752H1.4565L1.64724 4 1.7928 4.49752H2.25L1.9205 4.84573 2.08183 5.30568 1.64724 5.03169zM3.64724 3.03169 3.20446 3.30568 3.37636 2.84573 3 2.49752H3.4565L3.64724 2 3.7928 2.49752H4.25L3.9205 2.84573 4.08183 3.30568 3.64724 3.03169zM5.64724 5.03169 5.20446 5.30568 5.37636 4.84573 5 4.49752H5.4565L5.64724 4 5.7928 4.49752H6.25L5.9205 4.84573 6.08183 5.30568 5.64724 5.03169zM3.64724 7.03169 3.20446 7.30568 3.37636 6.84573 3 6.49752H3.4565L3.64724 6 3.7928 6.49752H4.25L3.9205 6.84573 4.08183 7.30568 3.64724 7.03169z"/><path fill="#FECA00" d="M12.421 2.73145C10.3793 3.74003 3.67061 8.2725 3.67061 8.2725H14.8462C14.7346 8.24755 14.6304 8.22682 14.5323 8.20727C13.7119 8.04391 13.3069 7.96328 12.421 6.19843C11.429 4.22238 12.421 2.73145 12.421 2.73145ZM3.30785 8.98246L3.15503 9.36243L3.30785 9.77992L14.6847 9.99991L15 9.42004L14.6847 9.00254L3.30785 8.98246Z"/></g></g></svg>

<svg xmlns="http://www.w3.org/2000/svg" fill="none" viewBox="0 0 16 12"><mask id="TK_svg__a" width="16" height="12" x="0" y="0" maskUnits="userSpaceOnUse"><path fill="#fff" d="M0 0h16v12H0z"/></mask><g mask="url(#TK_svg__a)"><path fill="#2E42A5" fill-rule="evenodd" d="M0 0v12h16V0H0z" clip-rule="evenodd"/><mask id="TK_svg__b" width="16" height="12" x="0" y="0" maskUnits="userSpaceOnUse"><path fill="#fff" fill-rule="evenodd" d="M0 0v12h16V0H0z" clip-rule="evenodd"/></mask><g fill-rule="evenodd" clip-rule="evenodd" mask="url(#TK_svg__b)"><path fill="#F7FCFF" d="M1.647 5.032l-.443.274.172-.46L1 4.498h.456L1.647 4l.146.498h.457l-.33.348.162.46-.435-.274zm2-2l-.443.274.172-.46L3 2.498h.457L3.647 2l.146.498h.457l-.33.348.162.46-.435-.274zm2 2l-.443.274.172-.46L5 4.498h.457L5.647 4l.146.498h.457l-.33.348.162.46-.435-.274zm-2 2l-.443.274.172-.46L3 6.498h.457L3.647 6l.146.498h.457l-.33.348.162.46-.435-.274z"/><path fill="#FECA00" d="M12.421 2.732c-2.042 1.008-8.75 5.54-8.75 5.54h11.175c-.111-.024-.216-.045-.314-.065-.82-.163-1.225-.244-2.111-2.008-.992-1.976 0-3.467 0-3.467zm-9.113 6.25l-.153.38.153.418 11.377.22.315-.58-.315-.417-11.377-.02z"/></g></g></svg>
